icons/solid/phone-missed-call.svg

<svg width="24" height="24" viewBox="0 0 24 24" fill="none" xmlns="http://www.w3.org/2000/svg">
<path fill-rule="evenodd" clip-rule="evenodd" d="M14.2929 3.29289C14.6834 2.90237 15.3166 2.90237 15.7071 3.29289L17.5 5.08579L19.2929 3.29289C19.6834 2.90237 20.3166 2.90237 20.7071 3.29289C21.0976 3.68342 21.0976 4.31658 20.7071 4.70711L18.9142 6.5L20.7071 8.29289C21.0976 8.68342 21.0976 9.31658 20.7071 9.70711C20.3166 10.0976 19.6834 10.0976 19.2929 9.70711L17.5 7.91421L15.7071 9.70711C15.3166 10.0976 14.6834 10.0976 14.2929 9.70711C13.9024 9.31658 13.9024 8.68342 14.2929 8.29289L16.0858 6.5L14.2929 4.70711C13.9024 4.31658 13.9024 3.68342 14.2929 3.29289ZM3 4C2.44772 4 2 4.44772 2 5C2 7.02274 2.42416 9.73381 3.58294 12.3988C4.98312 15.6188 7.47777 18.8187 11.605 20.5935C13.6724 21.4825 16.1206 22 19 22C19.5523 22 20 21.5523 20 21V17C20 16.5411 19.6877 16.1411 19.2425 16.0299L15.2425 15.0299C14.8667 14.9359 14.4704 15.0675 14.2254 15.3676L11.7161 18.4412C8.82223 16.9977 6.9199 14.7056 5.72478 12.2673L8.65079 9.75926C8.93838 9.51275 9.06201 9.12493 8.97014 8.75746L7.97014 4.75746C7.85885 4.3123 7.45887 4 7 4H3Z" fill="currentColor"/>
</svg>

<svg width="24" height="24" fill="none" xmlns="http://www.w3.org/2000/svg"><path fill-rule="evenodd" clip-rule="evenodd" d="M14.293 3.293a1 1 0 011.414 0L17.5 5.086l1.793-1.793a1 1 0 111.414 1.414L18.914 6.5l1.793 1.793a1 1 0 01-1.414 1.414L17.5 7.914l-1.793 1.793a1 1 0 01-1.414-1.414L16.086 6.5l-1.793-1.793a1 1 0 010-1.414zM3 4a1 1 0 00-1 1c0 2.023.424 4.734 1.583 7.399 1.4 3.22 3.895 6.42 8.022 8.194C13.672 21.483 16.121 22 19 22a1 1 0 001-1v-4a1 1 0 00-.758-.97l-4-1a1 1 0 00-1.017.338l-2.509 3.073c-2.894-1.443-4.796-3.735-5.991-6.174L8.65 9.76a1 1 0 00.32-1.002l-1-4A1 1 0 007 4H3z" fill="currentColor"/></svg>
